apex/img/badges-icon.svg

<svg width="24" height="24" viewBox="0 0 24 24" fill="none" xmlns="http://www.w3.org/2000/svg">
<path d="M23.3944 20.1324C23.3944 20.1324 21.7936 18.5323 20.8312 17.5704L17.5775 20.8242L20.1415 23.3871C21.2936 24.5425 22.7885 23.8024 23.2979 23.2914C24.0731 22.5233 24.3432 21.0842 23.3956 20.1337C23.3953 20.1334 23.3949 20.133 23.3944 20.1324Z" fill="white"/>
<path d="M20.2687 13.3121C19.4867 12.5301 18.2187 12.5301 17.4367 13.3121L13.3197 17.4291C12.5377 18.2111 12.5377 19.4791 13.3197 20.2612C14.1018 21.0432 15.3696 21.0432 16.1516 20.2612L20.2687 16.144C21.0508 15.362 21.0508 14.0942 20.2687 13.3121Z" fill="white"/>
<path d="M0.605716 20.1324C0.605167 20.133 0.6048 20.1334 0.604434 20.1335C-0.343137 21.0842 -0.073056 22.5231 0.702213 23.2914C1.21161 23.8024 2.70649 24.5424 3.85858 23.387L6.42261 20.824L3.16883 17.5704C2.20642 18.5323 0.605716 20.1324 0.605716 20.1324Z" fill="white"/>
<path d="M6.24579 11.0056L11.0056 6.24573L4.96589 0.205994C4.83423 0.0739746 4.65534 0 4.46876 0H0.703191C0.314824 0 6.60899e-05 0.314758 6.60899e-05 0.703125V4.46869C6.60899e-05 4.65527 0.0740407 4.83417 0.20606 4.96582L6.24579 11.0056Z" fill="white"/>
<path d="M24.0001 4.46869V0.703125C24.0001 0.314758 23.6853 0 23.2969 0H19.5314C19.3448 0 19.1661 0.0739746 19.0342 0.205994L7.24006 12L12.0001 16.76L23.7941 4.966C23.9261 4.83417 24.0001 4.65527 24.0001 4.46869Z" fill="white"/>
<path d="M6.56348 13.3121C5.78144 12.5301 4.51343 12.5301 3.73139 13.3121C2.94935 14.0942 2.94935 15.362 3.73139 16.144L7.84833 20.2612C8.63038 21.0432 9.89838 21.0432 10.6804 20.2612C11.4625 19.4791 11.4625 18.2111 10.6804 17.4291L6.56348 13.3121Z" fill="white"/>
</svg>

<svg width="24" height="24" fill="none" xmlns="http://www.w3.org/2000/svg"><path d="M23.394 20.132l-2.563-2.562-3.253 3.254 2.564 2.563c1.152 1.155 2.646.415 3.156-.096.775-.768 1.045-2.207.098-3.157l-.002-.002zm-3.125-6.82a2.003 2.003 0 00-2.832 0L13.32 17.43a2.003 2.003 0 002.832 2.832l4.117-4.117a2.002 2.002 0 000-2.832zM.606 20.132l-.002.002c-.947.95-.677 2.39.098 3.157.51.511 2.004 1.251 3.157.096l2.564-2.563-3.254-3.254-2.563 2.562zm5.64-9.126l4.76-4.76-6.04-6.04A.702.702 0 004.469 0H.703A.703.703 0 000 .703V4.47c0 .186.074.365.206.497l6.04 6.04zM24 4.469V.703A.703.703 0 0023.297 0H19.53a.702.702 0 00-.497.206L7.24 12 12 16.76 23.794 4.966A.703.703 0 0024 4.469zM6.563 13.312a2.003 2.003 0 00-2.832 2.832l4.117 4.117a2.003 2.003 0 002.832-2.832l-4.117-4.117z" fill="#fff"/></svg>
